src/Icon/svgs/logout.svg

<svg width="24" height="24" viewBox="0 0 24 24" fill="none" xmlns="http://www.w3.org/2000/svg">
<path fill-rule="evenodd" clip-rule="evenodd" d="M5 19H10V16H12V20C12 20.5523 11.5523 21 11 21H4C3.44772 21 3 20.5523 3 20V4C3 3.44772 3.44772 3 4 3H11C11.5523 3 12 3.44772 12 4V8H10V5H5V19ZM17.1726 11L13.5858 7.41421L15 6L21.0013 12L15 18L13.5858 16.5858L17.1726 13H9V11H17.1726Z" fill="#1B1C1D"/>
</svg>

<svg xmlns="http://www.w3.org/2000/svg" width="24" height="24" fill="none"  xmlns:v="https://vecta.io/nano"><path fill-rule="evenodd" d="M5 19h5v-3h2v4a1 1 0 0 1-1 1H4a1 1 0 0 1-1-1V4a1 1 0 0 1 1-1h7a1 1 0 0 1 1 1v4h-2V5H5v14zm12.173-8l-3.587-3.586L15 6l6.001 6L15 18l-1.414-1.414L17.173 13H9v-2h8.173z" fill="#1b1c1d"/></svg>
